X:1
T:Title
%%score { ( 1 3 4 ) | ( 2 5 ) }
L:1/8
Q:1/4=100
M:4/4
K:Bb
V:1 treble nm="Grand Piano"
V:3 treble 
V:4 treble 
V:2 bass 
V:5 bass 
V:1
 [B,D][CE][DF][EG] [DF]2 D2 | E2 G2 G4 | [DF][_D=E][=DF][_EG] [DF]2 [Fd]2 | [=Ec]2 [EG]2 c4 | %4
w: L.~E.~Jones * * * * *||||
 dddc [DB]2 [DF]2 | [F_A]2 G2 G4 | FFFF G2 A2 | [DB]6 z2 | [DF]6[K:bass][K:treble] z2 | %9
w: |||||
 [DB]-[B,D-B-][B,D-B-][B,DB] [DF]4 | (3[B,E-G-][B,E-G-][B,E-G-] [EG]4 (3GAB | %11
w: ||
 [=Ec]-[CE-c-][CE-c-][CEc] [CFA]4 | (3[B,D-B-][F,D-B-][F,D-B-] [DB]2- [DB]/FB/ (3[DB]cd | %13
w: ||
 [Gf]4 z4 | B2 A2 G2 A2 | [DB]6 z2 |] %16
w: |||
V:2
 [B,,F,][B,,F,][B,,B,][B,,B,] [B,,B,]2 [B,,F,B,]2 | [E,G,B,]2 [E,B,E]2 [E,B,E]4 | %2
 [B,,B,][B,,B,][B,,B,][B,,B,] [B,,B,]2 [B,,B,]2 | [C,G,]2 [C,B,]2 [F,A,E]4 | %4
 [B,F][B,F][B,F][K:bass][B,E] [B,,B,]2 [B,,B,]2 | [D,B,]2 [E,B,E]2 [E,B,E]4 | %6
 [F,B,D][F,B,D][F,B,D][F,B,D] [F,A,E]2 [F,E]2 | [B,,F,]6 z2 | %8
 (3[B,,B,]B,,B,, (3B,,B,,B,, (3z B,-[B,C] (3B,,EF | B,,C,D,F, B,4 | %10
 (3E,E,E, (3E,E,E, (3z EE (3E[K:treble]^FG | C,C,C,C, F,4 | z4 B,2[K:treble] z2 | %13
 [E,B,]E,E,E, [E,B,]2 [E,G,E]2 | [F,B,D]2 [F,CF]2 [F,A,E]2 [F,E]2 | [B,,F,]6 z2 |] %16
V:3
 x8 | x8 | x8 | x8 | x8 | x8 | x8 | x8 | (3z[K:bass] B,B, z2 z2[K:treble] (3[DF]GA | .B,2 z2 z4 | %10
 z2 (3B,B,B, (3z ^FG z B, | .C2 z2 z4 | z2 (3B,B,B, z2 z B, | z B,B,B, [Ge]2 c2 | x8 | x8 |] %16
V:4
 x8 | x8 | x8 | x8 | x8 | x8 | x8 | x8 | z2[K:bass] (3B,B,B, (3B,[K:treble]DE z B, | x8 | %10
 z4 B,2 z2 | x8 | x8 | x8 | x8 | x8 |] %16
V:5
 x8 | x8 | x8 | x8 | x3[K:bass] x5 | x8 | x8 | x8 | z4 B,,2 B,B,, | x8 | %10
 z4 E,2 [E,B,][K:treble]E, | x8 | (3B,,B,,B,, (3B,,D,F, (3z[K:treble] DD (3B,EF | x8 | x8 | x8 |] %16

